X:1
T:Title
%%score 1 { 2 | 3 }
L:1/8
Q:1/4=110
M:4/4
K:Eb
V:1 treble nm="Grand Piano, Treble Clef"
V:2 bass nm="Choir Pad, Olney (Gounod), CM"
V:3 bass 
V:1
 [EB]2 [EB]2 [EB]2 [Ec]2 | G2 [GB]2- [GB][FA] [FA]2 | [FA]2 [Dd]2- [Dd][Dc] [EB]2 | [FA]2 [EG]6 | %4
w: By~Charles~Gounod,~arr.~Frederick~Bridge,~1897 * * *||||
 [DB]2 [Ee]2 [E_d]2 [EB]2 | [EG]2 [EB]2- [EB][EA] [EA]2 | [Ec]2 [B,E]2- [B,E][B,E] [DG]2 | %7
w: |||
 [DF]2 E6- | E2 z2 z4 |] %9
w: ||
V:2
 G,2 G,2 G,2 G,2 | C2[K:treble] C2- CC C2 | A,2[K:bass] A,2- A,A, G,2 | B,2 B,6 | %4
 A,2 B,2 B,2[K:treble] _D2 | B,2 _D2- DC C2 | _G,2 =G,2- G,G, B,2 | A,2 G,6- | G,2 z2 z4 |] %9
V:3
 E,2 E,2 E,2 E,2 | E,2 F,2- F,F, F,2 | F,2 B,,2- B,,B,, C,2 | D,2 E,6 | F,2 G,2 G,2 E,2 | %5
 E,2 A,2- A,A,, A,,2 | =A,,2 B,,2- B,,B,, B,,2 | B,,2 E,6- | E,2 z2 z4 |] %9

